img/svg/googleplay-white.svg

<svg width="150" height="38" viewBox="0 0 150 38" fill="none" xmlns="http://www.w3.org/2000/svg">
<path d="M40.3414 4.61838C40.3414 5.73799 40.0615 6.71764 39.3617 7.4174C38.522 8.2571 37.5424 8.67696 36.2828 8.67696C35.0233 8.67696 34.0436 8.2571 33.2039 7.4174C32.3642 6.57769 31.9443 5.59804 31.9443 4.33848C31.9443 3.07892 32.3642 2.09926 33.2039 1.25956C34.0436 0.419853 35.0233 0 36.2828 0C36.8426 0 37.4024 0.139951 37.9622 0.419852C38.522 0.699754 38.9419 0.979656 39.2218 1.39951L38.522 2.09926C37.9622 1.39951 37.2625 1.11961 36.2828 1.11961C35.4431 1.11961 34.6034 1.39951 34.0436 2.09926C33.3438 2.65907 33.0639 3.49877 33.0639 4.47843C33.0639 5.45809 33.3438 6.29779 34.0436 6.85759C34.7434 7.4174 35.4431 7.83725 36.2828 7.83725C37.2625 7.83725 37.9622 7.55735 38.662 6.85759C39.0818 6.43774 39.3617 5.87794 39.3617 5.17818H36.2828V4.05858H40.3414V4.61838ZM46.7791 1.11961H43.0005V3.77868H46.4992V4.75833H43.0005V7.4174H46.7791V8.53701H41.8809V0.139951H46.7791V1.11961ZM51.3975 8.53701H50.2779V1.11961H47.8987V0.139951H53.7767V1.11961H51.3975V8.53701ZM57.8353 8.53701V0.139951H58.9549V8.53701H57.8353ZM63.7132 8.53701H62.5936V1.11961H60.2144V0.139951H65.9524V1.11961H63.5733V8.53701H63.7132ZM77.0086 7.4174C76.1688 8.2571 75.1892 8.67696 73.9296 8.67696C72.6701 8.67696 71.6904 8.2571 70.8507 7.4174C70.011 6.57769 69.5912 5.59804 69.5912 4.33848C69.5912 3.07892 70.011 2.09926 70.8507 1.25956C71.6904 0.419853 72.6701 0 73.9296 0C75.1892 0 76.1688 0.419853 77.0086 1.25956C77.8483 2.09926 78.2681 3.07892 78.2681 4.33848C78.2681 5.59804 77.8483 6.57769 77.0086 7.4174ZM71.6904 6.71764C72.2502 7.27745 73.0899 7.6973 73.9296 7.6973C74.7693 7.6973 75.609 7.4174 76.1688 6.71764C76.7287 6.15784 77.1485 5.31813 77.1485 4.33848C77.1485 3.35882 76.8686 2.51912 76.1688 1.95931C75.609 1.39951 74.7693 0.979656 73.9296 0.979656C73.0899 0.979656 72.2502 1.25956 71.6904 1.95931C71.1306 2.51912 70.7108 3.35882 70.7108 4.33848C70.7108 5.31813 70.9907 6.15784 71.6904 6.71764ZM79.8076 8.53701V0.139951H81.0671L85.1257 6.71764V0.139951H86.2453V8.53701H85.1257L80.7872 1.67941V8.53701H79.8076Z" fill="white"/>
<path d="M69.3112 20.8528C65.9524 20.8528 63.2933 23.3719 63.2933 26.8706C63.2933 30.2295 65.9524 32.8885 69.3112 32.8885C72.6701 32.8885 75.3291 30.3694 75.3291 26.8706C75.3291 23.2319 72.6701 20.8528 69.3112 20.8528ZM69.3112 30.3694C67.4919 30.3694 65.9524 28.83 65.9524 26.7307C65.9524 24.6314 67.4919 23.092 69.3112 23.092C71.1306 23.092 72.6701 24.4915 72.6701 26.7307C72.6701 28.83 71.1306 30.3694 69.3112 30.3694ZM56.2958 20.8528C52.9369 20.8528 50.2779 23.3719 50.2779 26.8706C50.2779 30.2295 52.9369 32.8885 56.2958 32.8885C59.6546 32.8885 62.3137 30.3694 62.3137 26.8706C62.3137 23.2319 59.6546 20.8528 56.2958 20.8528ZM56.2958 30.3694C54.4764 30.3694 52.9369 28.83 52.9369 26.7307C52.9369 24.6314 54.4764 23.092 56.2958 23.092C58.1151 23.092 59.6546 24.4915 59.6546 26.7307C59.6546 28.83 58.1151 30.3694 56.2958 30.3694ZM40.7612 22.6721V25.1912H46.7791C46.6391 26.5907 46.0793 27.7104 45.3796 28.4101C44.5399 29.2498 43.1404 30.2295 40.7612 30.2295C36.9825 30.2295 34.1835 27.2905 34.1835 23.5118C34.1835 19.7331 37.1225 16.7942 40.7612 16.7942C42.7205 16.7942 44.26 17.6339 45.3796 18.6135L47.1989 16.7942C45.6595 15.3947 43.7002 14.2751 40.9011 14.2751C35.8629 14.2751 31.5244 18.4736 31.5244 23.5118C31.5244 28.5501 35.8629 32.7486 40.9011 32.7486C43.7002 32.7486 45.6595 31.9089 47.3389 30.0895C49.0183 28.4101 49.5781 26.0309 49.5781 24.2116C49.5781 23.6518 49.5781 23.092 49.4382 22.6721H40.7612ZM104.299 24.6314C103.739 23.2319 102.34 20.8528 99.2608 20.8528C96.1818 20.8528 93.6627 23.2319 93.6627 26.8706C93.6627 30.2295 96.1818 32.8885 99.5407 32.8885C102.2 32.8885 103.879 31.2091 104.439 30.2295L102.48 28.83C101.78 29.8096 100.94 30.5094 99.5407 30.5094C98.1412 30.5094 97.3015 29.9496 96.6017 28.69L104.579 25.3312L104.299 24.6314ZM96.1818 26.5907C96.1818 24.3515 98.0012 23.092 99.2608 23.092C100.24 23.092 101.22 23.6518 101.5 24.3515L96.1818 26.5907ZM89.6041 32.3287H92.2632V14.8349H89.6041V32.3287ZM85.4056 22.1123C84.7058 21.4126 83.5862 20.7128 82.1867 20.7128C79.2478 20.7128 76.4487 23.3719 76.4487 26.7307C76.4487 30.0895 79.1078 32.6086 82.1867 32.6086C83.5862 32.6086 84.7059 31.9089 85.2657 31.2091H85.4056V32.0488C85.4056 34.288 84.146 35.5476 82.1867 35.5476C80.6473 35.5476 79.5277 34.428 79.2478 33.4483L77.0085 34.428C77.7083 35.9675 79.3877 37.9268 82.3267 37.9268C85.4056 37.9268 87.9247 36.1074 87.9247 31.7689V21.1327H85.4056V22.1123ZM82.3267 30.3694C80.5073 30.3694 78.9679 28.83 78.9679 26.7307C78.9679 24.6314 80.5073 23.092 82.3267 23.092C84.146 23.092 85.5456 24.6314 85.5456 26.7307C85.5456 28.83 84.146 30.3694 82.3267 30.3694ZM116.475 14.8349H110.177V32.3287H112.836V25.751H116.475C119.414 25.751 122.213 23.6518 122.213 20.2929C122.213 16.9341 119.414 14.8349 116.475 14.8349ZM116.615 23.2319H112.836V17.214H116.615C118.574 17.214 119.694 18.8934 119.694 20.153C119.554 21.6925 118.434 23.2319 116.615 23.2319ZM132.709 20.7128C130.75 20.7128 128.79 21.5525 128.091 23.3719L130.47 24.3515C131.03 23.3719 131.869 23.092 132.849 23.092C134.249 23.092 135.508 23.9317 135.648 25.3312V25.4711C135.228 25.1912 134.109 24.7714 132.989 24.7714C130.47 24.7714 127.951 26.1709 127.951 28.69C127.951 31.0692 130.05 32.6086 132.289 32.6086C134.109 32.6086 134.948 31.7689 135.648 30.9292H135.788V32.3287H138.307V25.6111C138.027 22.5322 135.648 20.7128 132.709 20.7128ZM132.429 30.3694C131.589 30.3694 130.33 29.9496 130.33 28.83C130.33 27.4305 131.869 27.0106 133.129 27.0106C134.249 27.0106 134.808 27.2905 135.508 27.5704C135.228 29.2498 133.829 30.3694 132.429 30.3694ZM147.124 21.1327L144.185 28.69H144.045L140.966 21.1327H138.167L142.786 31.7689L140.127 37.6469H142.786L149.923 21.1327H147.124ZM123.612 32.3287H126.271V14.8349H123.612V32.3287Z" fill="white"/>
<path d="M0.416485 6.36731C0.104121 6.67967 0 7.20028 0 7.82501V30.8359C0 31.4606 0.208243 31.9812 0.520607 32.2936L0.624729 32.3977L13.5358 19.4866V19.2784L0.416485 6.36731Z" fill="url(#paint0_linear)"/>
<path d="M17.7026 23.8596L13.4336 19.5906V19.2783L17.7026 15.0093L17.8067 15.1134L22.9086 18.0288C24.3663 18.8618 24.3663 20.2154 22.9086 21.0483L17.7026 23.8596Z" fill="url(#paint1_linear)"/>
<path d="M17.8063 23.7554L13.4332 19.3823L0.417969 32.3975C0.938576 32.9181 1.66743 32.9181 2.60452 32.5017L17.8063 23.7554Z" fill="url(#paint2_linear)"/>
<path d="M17.8063 15.0093L2.60452 6.36718C1.66743 5.84657 0.938576 5.95069 0.417969 6.4713L13.4332 19.3824L17.8063 15.0093Z" fill="url(#paint3_linear)"/>
<path opacity="0.2" d="M17.7021 23.6514L2.60452 32.1893C1.77155 32.7099 1.0427 32.6058 0.522091 32.1893L0.417969 32.2934L0.522091 32.3976C1.0427 32.814 1.77155 32.9182 2.60452 32.3976L17.7021 23.6514Z" fill="black"/>
<path opacity="0.2" d="M0.416485 32.1895C0.104121 31.8771 0 31.3565 0 30.7318V30.8359C0 31.4606 0.208243 31.9812 0.520607 32.2936V32.1895H0.416485ZM22.9067 20.7361L17.7006 23.6515L17.8048 23.7556L22.9067 20.8402C23.6356 20.4237 23.9479 19.9031 23.9479 19.3825C23.9479 19.9031 23.5314 20.3196 22.9067 20.7361Z" fill="black"/>
<path opacity="0.2" d="M2.60303 6.47147L22.9067 18.029C23.5314 18.4455 23.9479 18.8619 23.9479 19.3825C23.9479 18.8619 23.6356 18.3413 22.9067 17.9248L2.60303 6.36735C1.14534 5.53438 0 6.15911 0 7.82505V7.92917C0 6.36735 1.14534 5.6385 2.60303 6.47147Z" fill="white"/>
<defs>
<linearGradient id="paint0_linear" x1="12.2863" y1="7.62718" x2="-5.18838" y2="25.1008" gradientUnits="userSpaceOnUse">
<stop stop-color="#00A0FF"/>
<stop offset="0.007" stop-color="#00A1FF"/>
<stop offset="0.26" stop-color="#00BEFF"/>
<stop offset="0.512" stop-color="#00D2FF"/>
<stop offset="0.76" stop-color="#00DFFF"/>
<stop offset="1" stop-color="#00E3FF"/>
</linearGradient>
<linearGradient id="paint1_linear" x1="24.8182" y1="19.3834" x2="-0.375994" y2="19.3834" gradientUnits="userSpaceOnUse">
<stop stop-color="#FFE000"/>
<stop offset="0.409" stop-color="#FFBD00"/>
<stop offset="0.775" stop-color="#FFA500"/>
<stop offset="1" stop-color="#FF9C00"/>
</linearGradient>
<linearGradient id="paint2_linear" x1="15.4396" y1="21.773" x2="-8.25643" y2="45.4689" gradientUnits="userSpaceOnUse">
<stop stop-color="#FF3A44"/>
<stop offset="1" stop-color="#C31162"/>
</linearGradient>
<linearGradient id="paint3_linear" x1="-2.81292" y1="-1.25868" x2="7.76895" y2="9.32319" gradientUnits="userSpaceOnUse">
<stop stop-color="#32A071"/>
<stop offset="0.069" stop-color="#2DA771"/>
<stop offset="0.476" stop-color="#15CF74"/>
<stop offset="0.801" stop-color="#06E775"/>
<stop offset="1" stop-color="#00F076"/>
</linearGradient>
</defs>
</svg>

<svg width="150" height="38" viewBox="0 0 150 38" fill="none" xmlns="http://www.w3.org/2000/svg"><path d="M40.341 4.618c0 1.12-.28 2.1-.98 2.8-.839.84-1.819 1.259-3.078 1.259-1.26 0-2.24-.42-3.08-1.26-.839-.84-1.259-1.819-1.259-3.079 0-1.26.42-2.239 1.26-3.078.84-.84 1.82-1.26 3.079-1.26.56 0 1.12.14 1.68.42.559.28.979.56 1.259.98l-.7.7c-.56-.7-1.26-.98-2.24-.98-.839 0-1.679.28-2.238.98-.7.56-.98 1.399-.98 2.378 0 .98.28 1.82.98 2.38.7.56 1.4.98 2.239.98.98 0 1.68-.28 2.379-.98.42-.42.7-.98.7-1.68h-3.08v-1.12h4.06v.56zM46.78 1.12H43v2.659h3.5v.98H43v2.658h3.78v1.12h-4.9V.14h4.9v.98zm4.618 7.417h-1.12V1.12H47.9V.14h5.878v.98h-2.38v7.417zm6.438 0V.14h1.12v8.397h-1.12zm5.878 0h-1.12V1.12h-2.379V.14h5.738v.98h-2.379v7.417h.14zm13.296-1.12c-.84.84-1.82 1.26-3.08 1.26-1.259 0-2.239-.42-3.078-1.26-.84-.84-1.26-1.819-1.26-3.079 0-1.26.42-2.239 1.26-3.078C71.69.42 72.67 0 73.93 0c1.26 0 2.239.42 3.079 1.26.84.84 1.26 1.819 1.26 3.078 0 1.26-.42 2.24-1.26 3.08zm-5.319-.7c.56.56 1.4.98 2.24.98.84 0 1.679-.28 2.239-.98.56-.56.98-1.399.98-2.379s-.28-1.819-.98-2.379c-.56-.56-1.4-.98-2.24-.98-.84 0-1.679.28-2.239.98-.56.56-.98 1.4-.98 2.38s.28 1.819.98 2.379zm8.118 1.82V.14h1.26l4.058 6.578V.14h1.12v8.397h-1.12l-4.339-6.858v6.858h-.98zM69.311 20.853c-3.359 0-6.018 2.519-6.018 6.018a5.973 5.973 0 006.018 6.018c3.36 0 6.018-2.52 6.018-6.018 0-3.64-2.659-6.018-6.018-6.018zm0 9.516c-1.82 0-3.359-1.539-3.359-3.638 0-2.1 1.54-3.639 3.36-3.639 1.819 0 3.358 1.4 3.358 3.639 0 2.099-1.54 3.638-3.359 3.638zm-13.015-9.516c-3.36 0-6.018 2.519-6.018 6.018a5.973 5.973 0 006.018 6.018c3.359 0 6.018-2.52 6.018-6.018 0-3.64-2.66-6.018-6.018-6.018zm0 9.516c-1.82 0-3.36-1.539-3.36-3.638 0-2.1 1.54-3.639 3.36-3.639 1.82 0 3.359 1.4 3.359 3.639 0 2.099-1.54 3.638-3.36 3.638zM40.76 22.672v2.52h6.018c-.14 1.399-.7 2.518-1.4 3.218-.84.84-2.239 1.82-4.618 1.82-3.779 0-6.578-2.94-6.578-6.718 0-3.779 2.94-6.718 6.578-6.718 1.96 0 3.499.84 4.619 1.82l1.819-1.82c-1.54-1.4-3.499-2.519-6.298-2.519-5.038 0-9.377 4.199-9.377 9.237s4.339 9.237 9.377 9.237c2.8 0 4.758-.84 6.438-2.66 1.68-1.679 2.24-4.058 2.24-5.877 0-.56 0-1.12-.14-1.54H40.76zm63.538 1.96c-.56-1.4-1.959-3.78-5.038-3.78-3.08 0-5.598 2.38-5.598 6.019 0 3.359 2.519 6.018 5.878 6.018 2.659 0 4.338-1.68 4.898-2.66l-1.959-1.399c-.7.98-1.54 1.68-2.94 1.68-1.399 0-2.239-.56-2.938-1.82l7.977-3.359-.28-.7zm-8.117 1.959c0-2.24 1.82-3.499 3.079-3.499.979 0 1.959.56 2.239 1.26l-5.318 2.239zm-6.578 5.738h2.66V14.835h-2.66v17.494zm-4.198-10.217c-.7-.7-1.82-1.4-3.22-1.4-2.938 0-5.737 2.66-5.737 6.019 0 3.358 2.659 5.878 5.738 5.878 1.4 0 2.519-.7 3.079-1.4h.14v.84c0 2.239-1.26 3.499-3.22 3.499-1.539 0-2.658-1.12-2.938-2.1l-2.24.98c.7 1.54 2.38 3.499 5.319 3.499 3.079 0 5.598-1.82 5.598-6.158V21.133h-2.52v.98zm-3.08 8.257c-1.819 0-3.358-1.539-3.358-3.638 0-2.1 1.54-3.639 3.359-3.639s3.219 1.54 3.219 3.639c0 2.099-1.4 3.638-3.22 3.638zm34.149-15.534h-6.298v17.494h2.659V25.75h3.639c2.939 0 5.738-2.1 5.738-5.458 0-3.359-2.799-5.458-5.738-5.458zm.14 8.397h-3.779v-6.018h3.779c1.959 0 3.079 1.68 3.079 2.939-.14 1.54-1.26 3.079-3.079 3.079zm16.094-2.52c-1.959 0-3.919.84-4.618 2.66l2.379.98c.56-.98 1.399-1.26 2.379-1.26 1.4 0 2.659.84 2.799 2.24v.14c-.42-.28-1.539-.7-2.659-.7-2.519 0-5.038 1.399-5.038 3.918 0 2.38 2.099 3.919 4.338 3.919 1.82 0 2.659-.84 3.359-1.68h.14v1.4h2.519V25.61c-.28-3.079-2.659-4.898-5.598-4.898zm-.28 9.657c-.84 0-2.099-.42-2.099-1.539 0-1.4 1.539-1.82 2.799-1.82 1.12 0 1.679.28 2.379.56-.28 1.68-1.679 2.8-3.079 2.8zm14.695-9.236l-2.939 7.557h-.14l-3.079-7.557h-2.799l4.619 10.636-2.659 5.878h2.659l7.137-16.514h-2.799zm-23.512 11.196h2.659V14.835h-2.659v17.494z" fill="#fff"/><path d="M.416 6.367C.104 6.68 0 7.2 0 7.825v23.01c0 .626.208 1.146.52 1.459l.105.104 12.91-12.911v-.209L.417 6.368z" fill="url(#paint0_linear)"/><path d="M17.703 23.86l-4.27-4.27v-.312l4.27-4.269.104.104 5.102 2.916c1.457.833 1.457 2.186 0 3.02l-5.206 2.81z" fill="url(#paint1_linear)"/><path d="M17.806 23.755l-4.373-4.373L.418 32.397c.52.521 1.25.521 2.187.105l15.201-8.747z" fill="url(#paint2_linear)"/><path d="M17.806 15.01L2.605 6.366C1.667 5.846.939 5.95.418 6.47l13.015 12.911 4.373-4.373z" fill="url(#paint3_linear)"/><path opacity=".2" d="M17.702 23.651L2.605 32.19c-.833.52-1.562.417-2.083 0l-.104.104.104.105c.52.416 1.25.52 2.083 0l15.097-8.747z" fill="#000"/><path opacity=".2" d="M.416 32.19C.104 31.877 0 31.357 0 30.732v.104c0 .625.208 1.145.52 1.458v-.104H.417zm22.49-11.454l-5.205 2.915.104.105 5.102-2.916c.729-.416 1.04-.937 1.04-1.457 0 .52-.416.937-1.04 1.353z" fill="#000"/><path opacity=".2" d="M2.603 6.471L22.907 18.03c.624.416 1.04.833 1.04 1.354 0-.521-.311-1.042-1.04-1.458L2.603 6.367C1.145 5.534 0 6.16 0 7.825v.104c0-1.562 1.145-2.29 2.603-1.458z" fill="#fff"/><defs><linearGradient id="paint0_linear" x1="12.286" y1="7.627" x2="-5.188" y2="25.101" gradientUnits="userSpaceOnUse"><stop stop-color="#00A0FF"/><stop offset=".007" stop-color="#00A1FF"/><stop offset=".26" stop-color="#00BEFF"/><stop offset=".512" stop-color="#00D2FF"/><stop offset=".76" stop-color="#00DFFF"/><stop offset="1" stop-color="#00E3FF"/></linearGradient><linearGradient id="paint1_linear" x1="24.818" y1="19.383" x2="-.376" y2="19.383" gradientUnits="userSpaceOnUse"><stop stop-color="#FFE000"/><stop offset=".409" stop-color="#FFBD00"/><stop offset=".775" stop-color="orange"/><stop offset="1" stop-color="#FF9C00"/></linearGradient><linearGradient id="paint2_linear" x1="15.44" y1="21.773" x2="-8.256" y2="45.469" gradientUnits="userSpaceOnUse"><stop stop-color="#FF3A44"/><stop offset="1" stop-color="#C31162"/></linearGradient><linearGradient id="paint3_linear" x1="-2.813" y1="-1.259" x2="7.769" y2="9.323" gradientUnits="userSpaceOnUse"><stop stop-color="#32A071"/><stop offset=".069" stop-color="#2DA771"/><stop offset=".476" stop-color="#15CF74"/><stop offset=".801" stop-color="#06E775"/><stop offset="1" stop-color="#00F076"/></linearGradient></defs></svg>
